X: 59
T: Christmas Eve
C:Tony Cohen, Galway,(1910-1974)
R:reel
M:C|
K:G
E|"G"D3E ~G3A|B2dB "D"ABGA|"G"BAGE D3E|G2BG ABGE|
"G"DB,DE ~G3A|B2dB "D"ABGA|"G"BAGF G2BG| ABGE ~G3:|
|:A|"G"BABd "C"edeg|"Am"a2ge "G"g2eg|"Am"a2ge "G"~g3e|"G"d2BG "D"A2GA|
"G"BABd "C"edeg|"Am"a2ge "G"g2eg|"Am"a2ge"G" d2BG|ABGE ~G3:|
|:dc|"G"BG~G2 DGBd|"C"eg~g2 egdc|"G"BG~G2 DGBG|"Am"EAA2 EAAc|
"G"BG~G2 DGBd|"C"eggf g3a|"G"bgaf gedB|ABGE ~G3:|


